!!!COA1: Gaspar van Weerbeke
!!!CDT1: ~1450-~1517
!!!COA2: Compere, Loyset
!!!LAR: Sicher, Fridolin
!!!OTL: Vray dieu quel
!!!ONB: organ intabulation
!!!AGN: Song; Chanson
!!!SCT: Gas0508.2
!!!SCA: Gas0508.2
**kern	**kern
*part1	*part1
*staff2	*staff1
*clefF4	*clefG2
*k[]	*k[]
*M2/1	*M2/1
*met(C|)	*met(C|)
=1	=1
*^	*^
0rF	0ryy	0G	0ree
=2	=2	=2	=2
0rF	0ryy	0g	1G
.	.	.	1G
*v	*v	*	*
=3	=3	=3
0G	1g	1d
.	1dd	[1d
=4	=4	=4
1G	1dd	2d]
.	.	2e
1d	1dd	1f
=5	=5	=5
*^	*	*
1d	0G	1.dd	1g
1d	.	.	1f
.	.	2cc	.
!!LO:LB:g=original
=6	=6	=6	=6
0d	1G	2.b-X	2g
.	.	.	2d
.	.	4a	.
.	1G	1b-	1g
=7	=7	=7	=7
1.c	1A	0cc	2re
.	.	.	2f
.	1F	.	[1f
4B-X	.	.	.
4A	.	.	.
=8	=8	=8	=8
0BnXj	0G	0ree	2f]
.	.	.	4e
.	.	.	4d
.	.	.	1e
=9	=9	=9	=9
0c	0F	0ree	0f
=10	=10	=10	=10
0ryy	0F	0ff	0a
=11	=11	=11	=11
0ryy	1C	1ee	1g
.	1D	1dd	1f
!!LO:LB:g=original
=12	=12	=12	=12
0ryy	1A	1dd	0e
.	1A	1cc#i	.
=13	=13	=13	=13
0f	1.B-X	0dd	0d
.	2A	.	.
=14	=14	=14	=14
1e	1G	0ree	0ryy
1d	1F	.	.
=15	=15	=15	=15
1d	1E	0ree	0ryy
1c#i	1E	.	.
=16	=16	=16	=16
0d	1.D	1rdd	1.f
.	.	1dd	.
.	2E	.	2g
=17	=17	=17	=17
0d	1F	1dd	1a
.	1G	1dd	1g
!!LO:LB:g=original
=18	=18	=18	=18
0ryy	0A	1cc	2re
.	.	.	4f
.	.	.	4e
.	.	1a	1f#X
=19	=19	=19	=19
0ryy	0G	1.b-X	1.g
.	.	2a	[2d
=20	=20	=20	=20
1rc	0G	1g	2d]
.	.	.	2c
1d	.	1g	1B-X
=21	=21	=21	=21
1d	1.D	0f	1A
1d	.	.	1A
.	2E	.	.
=22	=22	=22	=22
1c	1F	2.A	0ryy
.	.	4B-X	.
1A	1F	1c	.
=23	=23	=23	=23
1.B-X	1.G	2B-X	0ryy
.	.	2.d	.
.	.	4e	.
2A	2A	[2f	.
!!LO:LB:g=original
=24	=24	=24	=24
0G	1BnZj	2f]	0ryy
.	.	4e	.
.	.	4d	.
.	1B	1e	.
=25	=25	=25	=25
0F	1c	1.a	0f
.	1F	.	.
.	.	2bn-	.
=26	=26	=26	=26
0ryy	2rD	0cc	1f
.	2G	.	.
.	1A	.	1e
=27	=27	=27	=27
0ryy	1.B-X	0dd	1.d
.	4A	.	2e
.	4G	.	.
=28	=28	=28	=28
0ryy	1A	1cc	1f
.	1G	1b-X	1g
=29	=29	=29	=29
1.A	0F	1a	0c
.	.	1a	.
2B-X	.	.	.
!!LO:LB:g=original
=30	=30	=30	=30
0c	0C	1.g	1.e
.	.	2a	2f
=31	=31	=31	=31
0d	1G	1b-i	1g
.	1D	1a	1f
=32	=32	=32	=32
1c	1F	2rcc	2rcc
.	.	2g	2e
1B-X	1G	1g	2d
.	.	.	2c
=33	=33	=33	=33
0A	3%4D	2rb	0d
.	.	4f#i	.
.	.	4e	.
.	.	1f#i	.
.	3%2D	.	.
*v	*v	*	*
*	*v	*v
=34	=34
*M3/1	*M3/1
*^	*^
!!LO:TX:t=[whole]=[whole-dot]
0.G	0G	0g	1d
.	.	.	1e
.	1G	1g	1g
=35	=35	=35	=35
0rc	0B-X	0dd	0f
1G	1B-	1dd	1d
!!LO:PB:g=original
=36	=36	=36	=36
0d	0G	0dd	0g
1d	1G	1dd	1g
=37	=37	=37	=37
0d	1.D	1.dd	0f
.	2E	2cc	.
1d	1F	1a	1f
=38	=38	=38	=38
0.d	0.G	0.b-i	1d
.	.	.	1.g
.	.	.	2f
=39	=39	=39	=39
1c	1A	0a	0f
1A	1F	.	.
1B-X	1G	1g	1e
=40	=40	=40	=40
0.c	0.F	0.a	0f
.	.	.	1e
=41	=41	=41	=41
0.f	0A	0cc	1c
.	.	.	1f
.	1B-X	1dd	1d
!!LO:LB:g=original
=42	=42	=42	=42
0e	0c	0cc	1g
.	.	.	1.a
1d	1B-X	1dd	.
.	.	.	2g
=43	=43	=43	=43
1d	1G	1b-i	0g
0c	0A	1cc	.
.	.	1a	1f#X
=44	=44	=44	=44
0d	0.G	0b-X	0g
1d	.	1b-	1g
=45	=45	=45	=45
0d	0B-X	1.dd	0f
.	.	2cc	.
1d	1B-i	1b-X	1f
=46	=46	=46	=46
0c	0F	1.a	0f
.	.	2g	.
1A	1F	1a	1f
=47	=47	=47	=47
1.B-X	1.G	0.g	0d
2A	2A	.	.
1G	1B-	.	1e
!!LO:LB:g=original
=48	=48	=48	=48
0F	0c	0a	1.f
.	.	.	2e
1G	1B-X	1rbb	1d
=49	=49	=49	=49
1.A	1c	0.cc	1c
.	0A	.	1e
2B-X	.	.	.
1c	.	.	1f
=50	=50	=50	=50
0d	1G	1b-i	1g
.	1D	1.a	1.f
1c	1F	.	.
.	.	2g	2e
=51	=51	=51	=51
1B-X	1G	0g	1.d
0A	0D	.	.
.	.	.	2c
.	.	1f#i	1d
=52	=52	=52	=52
0.G	0.G	0.g	1B-X
.	.	.	0e-X
=53	=53	=53	=53
0.Gl	0.Gl	0.gl	0.dl
*v	*v	*	*
*	*v	*v
==	==
*-	*-
!!!system-decoration: [*]
!!!RDF**kern: i = editorial accidental
!!!RDF**kern: j = editorial accidental, optional, paren up
!!!RDF**kern: N = editorial accidental, cautionary, paren
!!!RDF**kern: l = terminal long
!!!PTL: Gaspar van Weerbeke: Collected Works. V. Settings of Liturgical Texts, Songs, and Instrumental Works
!!!ISBN: 978-1-59551-544-5
!!!PPR: American Institute of Musicology
!!!PC#: Corpus Mensurabilis Musicae 106/V
!!!PDT: 2020
!!!PED: Kolb, Paul
!!!YEC: Copyright 2018, Kolb, Paul
!!!YEM: CC-BY-NC 4.0 (https://creativecommons.org/licenses/by-nc/4.0/legalcode)
!!!EED: Zybina, Karina
!!!EEV: 2021/08/26
!!!ONB: from http://www.gaspar-van-weerbeke.sbg.ac.at/gaspar-online-edition with doubled rhythms
